asset/media/emojione-v1_laptop-computer.svg

<svg width="32" height="32" viewBox="0 0 64 64" fill="none" xmlns="http://www.w3.org/2000/svg">
<g clip-path="url(#clip0_145_1516)">
<path d="M39.568 47.3999H24.251C24.608 47.3999 24.896 50.9109 24.896 55.2359C24.896 59.5639 24.609 63.0749 24.251 63.0749H39.568C39.212 63.0749 38.923 59.5639 38.923 55.2359C38.925 50.9109 39.212 47.3999 39.568 47.3999Z" fill="#BFBEBE"/>
<path d="M29.615 47.3999H24.252C24.609 47.3999 24.897 50.9109 24.897 55.2359C24.897 59.5639 24.61 63.0749 24.252 63.0749H29.615C29.972 63.0749 30.26 59.5639 30.26 55.2359C30.26 50.9109 29.972 47.3999 29.615 47.3999Z" fill="#AEAEAE"/>
<path d="M63.7841 47.3101C63.7841 51.3571 60.7341 54.6361 56.9781 54.6361H6.84806C3.08806 54.6361 0.0390625 51.3571 0.0390625 47.3101V10.1901C0.0390625 6.15014 3.08806 2.86914 6.84806 2.86914H56.9781C60.7341 2.86914 63.7841 6.14714 63.7841 10.1901V47.3101Z" fill="#D1D2D2"/>
<path d="M12.9302 47.3101V10.1901C12.9302 6.15014 15.9792 2.86914 19.7382 2.86914H6.84416C3.08416 2.86914 0.0351562 6.14714 0.0351562 10.1901V47.3101C0.0351562 51.3571 3.08416 54.6361 6.84416 54.6361H19.7382C15.9792 54.6361 12.9302 51.3561 12.9302 47.3091" fill="#C6C5C5"/>
<path d="M63.7841 36.9409C63.7841 40.9809 60.7341 44.2609 56.9781 44.2609H6.84806C3.08806 44.2609 0.0390625 40.9839 0.0390625 36.9409V10.1629C0.0390625 6.11589 3.08806 2.83789 6.84806 2.83789H56.9781C60.7341 2.83789 63.7841 6.11589 63.7841 10.1629V36.9409Z" fill="#243438"/>
<path d="M0.0361328 35.0498H63.7851V46.4168H0.0361328V35.0498Z" fill="#243438"/>
<path d="M58.7498 6.24414H5.06884C4.62584 6.24414 4.25684 6.48914 4.25684 6.78414V41.6751C4.25684 41.9711 4.62584 42.2151 5.06884 42.2151H58.7498C58.9908 42.2151 59.1738 42.1641 59.3068 42.0741L59.3268 42.0541C59.3268 42.0541 59.3428 42.0421 59.3468 42.0311C59.4124 41.9971 59.4676 41.9461 59.5068 41.8835C59.5461 41.8209 59.5678 41.749 59.5698 41.6751V6.79114C59.5658 6.49614 59.1928 6.25114 58.7498 6.25114" fill="#58C5E8"/>
<path d="M43.7211 62.7271C43.7211 63.4291 43.3831 64.0001 42.9681 64.0001H20.8581C20.4391 64.0001 20.1011 63.4291 20.1011 62.7271C20.1011 62.0241 20.4391 61.4541 20.8581 61.4541H42.9681C43.3831 61.4511 43.7211 62.0231 43.7211 62.7271Z" fill="#D1D2D2"/>
<path d="M27.937 62.7271C27.937 62.0241 28.275 61.4541 28.69 61.4541H20.565C20.149 61.4541 19.812 62.0241 19.812 62.7271C19.812 63.4291 20.15 64.0001 20.565 64.0001H28.69C28.275 64.0001 27.937 63.4291 27.937 62.7271Z" fill="#C6C5C5"/>
<path d="M34.3299 48.6149C34.2319 48.5209 34.0889 48.4939 33.8939 48.5499L32.7709 48.8369C32.4209 48.9319 32.2439 49.1629 32.2439 49.5349L32.2399 50.7359C32.2399 50.9099 32.2789 51.0389 32.3569 51.1129C32.3899 51.1446 32.429 51.1691 32.4718 51.1851C32.5146 51.2011 32.5603 51.2082 32.6059 51.2059C32.6659 51.2059 32.7219 51.1929 32.7939 51.1789L33.9159 50.8929C34.2659 50.7989 34.4439 50.5669 34.4479 50.1899V48.9929C34.4449 48.8159 34.4059 48.6889 34.3299 48.6149ZM33.7339 49.9819C33.7339 50.1149 33.6719 50.1969 33.5449 50.2319L33.1469 50.3359C33.1252 50.3402 33.1031 50.3429 33.0809 50.3439C33.0482 50.3446 33.0163 50.3336 32.9909 50.3129C32.9649 50.2879 32.9479 50.2409 32.9529 50.1729V49.7459C32.9529 49.6129 33.0149 49.5309 33.1399 49.4969L33.5429 49.3929C33.6119 49.3769 33.6639 49.3849 33.6939 49.4159C33.7239 49.4429 33.7369 49.4879 33.7369 49.5519V49.9829H33.7339V49.9819ZM31.5799 49.5299C31.5799 49.1579 31.4049 48.9259 31.0519 48.8319L29.9299 48.5449C29.7359 48.4889 29.5919 48.5189 29.4989 48.6099C29.4169 48.6839 29.3779 48.8109 29.3779 48.9869L29.3819 50.1819C29.3859 50.5589 29.5609 50.7919 29.9099 50.8849L31.0359 51.1719C31.1019 51.1919 31.1639 51.1989 31.2179 51.1989C31.2637 51.2014 31.3095 51.1943 31.3523 51.1781C31.3952 51.1619 31.4342 51.137 31.4669 51.1049C31.5449 51.0319 31.5839 50.9039 31.5839 50.7279L31.5799 49.5299ZM30.8339 50.3079C30.8139 50.3289 30.7839 50.3389 30.7449 50.3389C30.7449 50.3389 30.7019 50.3349 30.6789 50.3309L30.2789 50.2269C30.1549 50.1919 30.0889 50.1099 30.0889 49.9769V49.5459C30.0889 49.4839 30.1049 49.4379 30.1309 49.4099C30.1619 49.3789 30.2129 49.3709 30.2859 49.3869L30.6859 49.4909C30.8099 49.5249 30.8759 49.6069 30.8759 49.7399V50.1709C30.8759 50.2329 30.8759 50.2799 30.8339 50.3079ZM32.3689 52.6089C32.3889 52.6089 32.4079 52.6049 32.4349 52.5959L32.8349 52.4929C32.9589 52.4639 33.0249 52.3779 33.0249 52.2409V51.8149C33.0266 51.7659 33.0129 51.7177 32.9859 51.6769C32.9509 51.6429 32.8959 51.6389 32.8309 51.6559L32.4269 51.7589C32.3029 51.7899 32.2399 51.8749 32.2399 52.0109L32.2359 52.4399C32.2359 52.5019 32.2519 52.5439 32.2789 52.5709C32.2989 52.5969 32.3299 52.6089 32.3689 52.6089ZM31.4559 52.6089C31.432 52.6086 31.4083 52.6042 31.3859 52.5959L30.9859 52.4929C30.8619 52.4639 30.7989 52.3779 30.7989 52.2409L30.7949 51.8149C30.7949 51.7519 30.8109 51.7099 30.8379 51.6769C30.8689 51.6429 30.9229 51.6389 30.9889 51.6559L31.3969 51.7589C31.5179 51.7899 31.5839 51.8749 31.5839 52.0109V52.4399C31.5839 52.5019 31.5679 52.5439 31.5449 52.5709C31.5338 52.5834 31.52 52.5932 31.5047 52.5998C31.4893 52.6064 31.4726 52.6095 31.4559 52.6089Z" fill="#243438"/>
</g>
<defs>
<clipPath id="clip0_145_1516">
<rect width="64" height="64" fill="white"/>
</clipPath>
</defs>
</svg>

<svg xmlns="http://www.w3.org/2000/svg" width="32" height="32" fill="none" viewBox="0 0 64 64"><g clip-path="url(#a)"><path fill="#BFBEBE" d="M39.568 47.4H24.251c.357 0 .645 3.51.645 7.836 0 4.328-.287 7.839-.645 7.839h15.317c-.356 0-.645-3.511-.645-7.84.002-4.324.289-7.835.645-7.835Z"/><path fill="#AEAEAE" d="M29.615 47.4h-5.363c.357 0 .645 3.51.645 7.836 0 4.328-.287 7.839-.645 7.839h5.363c.357 0 .645-3.511.645-7.84 0-4.324-.288-7.835-.645-7.835Z"/><path fill="#D1D2D2" d="M63.784 47.31c0 4.047-3.05 7.326-6.806 7.326H6.848c-3.76 0-6.809-3.279-6.809-7.326V10.19c0-4.04 3.05-7.32 6.81-7.32h50.13c3.755 0 6.805 3.277 6.805 7.32v37.12Z"/><path fill="#C6C5C5" d="M12.93 47.31V10.19c0-4.04 3.05-7.32 6.808-7.32H6.844c-3.76 0-6.809 3.277-6.809 7.32v37.12c0 4.047 3.05 7.326 6.81 7.326h12.893c-3.759 0-6.808-3.28-6.808-7.327"/><path fill="#243438" d="M63.784 36.94c0 4.04-3.05 7.32-6.806 7.32H6.848c-3.76 0-6.809-3.276-6.809-7.32V10.164c0-4.047 3.05-7.325 6.81-7.325h50.13c3.755 0 6.805 3.278 6.805 7.325V36.94Z"/><path fill="#243438" d="M.036 35.05h63.75v11.367H.035V35.05Z"/><path fill="#58C5E8" d="M58.75 6.244H5.069c-.443 0-.812.245-.812.54v34.891c0 .296.369.54.812.54h53.68c.242 0 .425-.05.558-.14l.02-.02s.016-.013.02-.024a.413.413 0 0 0 .223-.356V6.791c-.004-.295-.377-.54-.82-.54"/><path fill="#D1D2D2" d="M43.721 62.727c0 .702-.338 1.273-.753 1.273h-22.11c-.419 0-.757-.57-.757-1.273s.338-1.273.757-1.273h22.11c.415-.003.753.57.753 1.273Z"/><path fill="#C6C5C5" d="M27.937 62.727c0-.703.338-1.273.753-1.273h-8.125c-.416 0-.753.57-.753 1.273 0 .702.338 1.273.753 1.273h8.125c-.415 0-.753-.57-.753-1.273Z"/><path fill="#243438" d="M34.33 48.615c-.098-.094-.241-.121-.436-.065l-1.123.287c-.35.095-.527.326-.527.698l-.004 1.2c0 .175.039.304.117.378a.335.335 0 0 0 .249.093c.06 0 .116-.013.188-.027l1.122-.286c.35-.094.528-.326.532-.703v-1.197c-.003-.177-.042-.304-.118-.378Zm-.596 1.367c0 .133-.062.215-.19.25l-.397.104a.442.442 0 0 1-.066.008.138.138 0 0 1-.09-.031c-.026-.025-.043-.072-.038-.14v-.427c0-.133.062-.215.187-.25l.403-.103c.069-.016.12-.008.15.023.03.027.044.072.044.136v.43h-.003Zm-2.154-.452c0-.372-.175-.604-.528-.698l-1.122-.287c-.194-.056-.338-.026-.431.065-.082.074-.121.2-.121.377l.004 1.195c.004.377.179.61.528.703l1.126.287c.066.02.128.027.182.027a.33.33 0 0 0 .249-.094c.078-.073.117-.201.117-.377l-.004-1.198Zm-.746.778c-.02.02-.05.03-.09.03 0 0-.042-.003-.065-.007l-.4-.104c-.124-.035-.19-.117-.19-.25v-.431c0-.062.016-.108.042-.136.03-.031.082-.04.155-.023l.4.104c.124.034.19.116.19.249v.43c0 .063 0 .11-.042.138Zm1.535 2.3c.02 0 .039-.003.066-.012l.4-.103c.124-.03.19-.115.19-.252v-.426a.235.235 0 0 0-.04-.138c-.034-.034-.09-.038-.154-.021l-.404.103c-.124.03-.187.116-.187.252l-.004.429c0 .062.016.104.043.13.02.027.05.039.09.039Zm-.913 0a.21.21 0 0 1-.07-.012l-.4-.103c-.124-.03-.187-.115-.187-.252l-.004-.426c0-.063.016-.105.043-.138.03-.034.085-.038.15-.021l.409.103c.12.03.187.116.187.252v.429c0 .062-.016.104-.04.13a.114.114 0 0 1-.088.039Z"/></g><defs><clipPath id="a"><path fill="#fff" d="M0 0h64v64H0z"/></clipPath></defs></svg>
